X:1
T:Star in the East
T:William Augustine Ogden
T:Star in the East
T:Public Domain
T:Public Domain
T:Public Domain
T:Public Domain
C:William Augustine Ogden
Z:Public Domain
%%score ( 1 2 ) ( 3 4 )
L:1/8
M:6/8
K:Eb
V:1 treble 
V:2 treble 
V:3 bass 
V:4 bass 
V:1
 E/E/ | E[EG][GB] [Ge]2 [Ge]/[Ge]/ | [Ad][Ac][Ad] [Ge]2 [GB] | [Ac][ce][Ac] [GB][EG]E | %4
w: 1.~Lo! the|the East! o- ver Beth- le-|plain, It shines as a|guide to the place Where the|
w: 2.~Lo! the|the East! we may gaze on|now; Be pil- grims, with|it for our guide; Th- e|
w: 3.~Lo! the|the East! let us fol- low|still, No pil- grim it|e’er led a- stray; Let us|
w: 4.~Lo! the|the East! yet with far wid-|rays, Shall its glor- ious|shin- ing go forth; A- nd|
 [DF]3- [DF]2 E/E/ | E[EG][GB] [Ge][Ge][Ge] | [Ad][Ac][Ad] [Ge]2 [GB] | [Ac][ce][Ac] [GB][EG][DF] | %8
w: y, * worn trav-|hopes may at- tain, And wor-|that In- fant of Days.|While forth from their trea- sures,|
w: son * of Beth-|still ev- er new, The man-|and cross where He died.|We~may read, we may learn, from|
w: at * His feet,|stu- dy His will, And ev-|His pre- cepts o- bey.|What trea- sures have we to|
w: nest- * ly plead,|hast- en the day, When~His know-|shall fill all the earth.|We~would lift up our prayers, we|
 E3- E2 [EG] | [DF][^C=E][DF] [FA][EG][FA] | [Ac][GB][FA] [EG]2 ([EG]/[EG]/) | %11
w: frank- * in-|and gold, And~the cost- li- est|spic- es they bring. For~in *|
w: His * birth|His grave, The teach- ings of|peace and of love; For *|
w: pre- * sent|our King, As~an off- er- ing|fit- ting and true? Our *|
w: would * strength-|our hands, Would send out our|means all a- broad, Till~the *|
 [DF][DB][DB] [E=A][EG][EA] | [DB]3- [DB]2 (E/E/) | E[EG][GB] [Ge]2 [Ge]/[Ge]/ | %14
w: their dis- tant land it had|long * been *|The birth of that glo- ri-|
w: this is the King Who is|might- * y *|His grace and His love we|
w: hearts and our- selves, bles- sèd|Je- * sus, *|Ac- cept us, and form us|
w: glor- i- ous Gos- pel is|heard * in *|And~the world is con- vert- ed|
 [Ad][Ac][Ad] [Ge]2 [GB] | [Ac][ce][Ac] [GB][EG][DF] | E3- E2 ||"^Refrain" [GB]/!ff![GB]/ | %18
w: King. * * * *||||
w: prove. Let the glad world|re- joice! Let the an- gel-|ic *|Their an-|
w: new. * * * *||||
w: God. * * * *||||
 [Ge][Ee][Ge] [Ge]2 [Ge]/[Ge]/ | [Ad][Ac][Ad] [Ge]2 [GB] | [Ac][ce][Ac] [GB][EG]E | %21
w: |||
w: thems tri- umph- ant- ly sing!|To God be the glo-|ry! Sound forth, all ye lands,|
w: |||
w: |||
 [DF]3- [DF]2 E | E[EG][GB] [Ge][Ge][Ge] | [Ad][Ac][Ad] [Ge]2 [GB] | [Ac][ce][Ac] [GB][EG][DF] | %25
w: ||||
w: com- * ing|Je- sus our King. * *|||
w: ||||
w: ||||
 E3- E2 |] %26
w: |
w: |
w: |
w: |
V:2
 E/E/ | E x5 | x6 | x5 E | x5 E/E/ | E x5 | x6 | x6 | E3- E2 x | x6 | x6 | x6 | x5 E/E/ | E x5 | %14
w: star in|hem’s||wear-|’ler his|ship|||cense *||||fore- told,|ous|
w: star in|it||les-|le- hem,|ger,|||to *||||to save;|may|
w: star in|it||bow|let us|er|||to *||||we bring,|a-|
w: star in|er||ear-|God would|ledge|||en *||||all lands,|to|
 x6 | x6 | E3- E2 || x | x6 | x6 | x5 E | x5 E | E x5 | x6 | x6 | E3- E2 |] %26
w: ||||||||||||
w: ||bands *||||The|of|||||
w: ||||||||||||
w: ||||||||||||
V:3
 E,/E,/ | E,E,E, E,2 E,/E,/ | B,,B,,B,, E,2 E, | A,A,A, E,E,G, | B,3- B,2 E,/E,/ | E,E,E, E,E,E, | %6
 B,,B,,B,, E,2 E, | A,,A,,A,, B,,B,,B,, | E,3- E,2 B,, | B,,B,,B,, B,,B,,B,, | %10
 B,,B,,B,, E,2 (E,/E,/) | F,F,F, F,F,F, | B,,3- B,,2 (E,/E,/) | E,E,E, E,2 E,/E,/ | %14
 B,,B,,B,, E,2 E, | A,,A,,A,, B,,B,,B,, | E,3- E,2 || [B,,B,]/[B,,B,]/ | %18
 [E,B,][G,B,]B, [E,B,]2 [E,B,]/[E,B,]/ | [B,,B,][B,,B,][B,,B,] [E,B,]2 [E,E] | %20
 [A,E][A,E][A,E] [E,E][E,B,][E,G,] | [B,,B,]3- [B,,B,]2 [E,G,] | %22
 [E,G,][E,B,][E,E] [E,B,][E,B,][E,B,] | [B,,B,][B,,B,][B,,B,] [E,B,]2 [E,E] | %24
 [A,E][A,E][A,E] [E,E][E,B,][B,,A,] | [E,G,]3- [E,G,]2 |] %26
V:4
 x | x6 | x6 | x6 | x6 | x6 | x6 | x6 | x6 | x6 | x6 | x6 | x6 | x6 | x6 | x6 | x5 || x | %18
 x2 B, x3 | x6 | x6 | x6 | x6 | x6 | x6 | x5 |] %26

